X:20
T:Gan Ainm
Z: id:dc-polka-44
M:2/4
L:1/8
K:A Major
B/|c2 c>B|AF F2|EA AB|cB B2|!
c2 c>B|AF F2|Ee ec|BA A3/2:|!
B/|cA BA|cA BA|ce ec|BA B2|!
cA BA|cA BA|ce ec|BA A3/2:|!

